X:70
T:70 The Legacy or New Mown Hay (William & Nancy)
C:Welch MS
I:abc2nwc
M:6/8
L:1/8
K:G
D|G2G GDB|d2d dBG|G2A BAB|E2F G2D|G2G GDB|d2d dBG|G2A BAB|E2F G2
D|GBd g2g|fed edB|GBd g2g|fdB e2d|g2g fdB|e2e dBG|G2A BAB|E2F G2:|


